X:517
T: SCHWAEFELHOLZE
N: E1791
O: Europa, Mitteleuropa, Deutschland; Frankreich, Elsass
R: Scherz - Lied
M: 2/4
L: 1/16
K: F
 | A2c2c2A2 | G2B2B2G2 |
F2A2A2F2 | G2E2C4 |
A2c2c2A2 | G2B2B2
G2 | A2F2G2E2 | F4z4 |
d2d2d2f2 | c2c2c4 |
B2B2B2cB | A2A2A4 |
A2F2B2G2 | c2A2B2G2 |
A2F2B2G2 | c2A2B2G2 |
A2F2G2E2 | F4z4 |
d2d2d2ed | c2c2c2dc |
B2B2B2cB | A2A2A2BA |
G2G2G2AG | F4z4

@@@ Tune index: 5201
